src/resources/assets/volume-2.svg

<svg xmlns="http://www.w3.org/2000/svg" width="16" height="16"><path d="M 9.800781 2.296875 C 9.929688 2.445312 10 2.636719 10 2.832031 L 10 13.167969 C 10 13.628906 9.625 14 9.167969 14 C 8.96875 14 8.777344 13.929688 8.628906 13.804688 L 5.316406 11 L 2.832031 11 C 2.003906 11 1.332031 10.328125 1.332031 9.5 L 1.332031 6.5 C 1.332031 5.671875 2.003906 5 2.832031 5 L 5.316406 5 L 8.628906 2.195312 C 8.980469 1.898438 9.503906 1.945312 9.800781 2.296875 Z M 9 3.191406 L 5.683594 6 L 2.832031 6 C 2.558594 6 2.332031 6.222656 2.332031 6.5 L 2.332031 9.5 C 2.332031 9.777344 2.558594 10 2.832031 10 L 5.683594 10 L 9 12.808594 Z M 11.402344 5.761719 C 11.636719 5.617188 11.945312 5.691406 12.089844 5.925781 C 12.472656 6.554688 12.664062 7.253906 12.664062 8.019531 C 12.664062 8.785156 12.472656 9.488281 12.089844 10.113281 C 11.945312 10.351562 11.636719 10.425781 11.402344 10.28125 C 11.167969 10.136719 11.09375 9.828125 11.234375 9.59375 C 11.519531 9.125 11.664062 8.605469 11.664062 8.019531 C 11.664062 7.4375 11.519531 6.914062 11.234375 6.449219 C 11.09375 6.210938 11.167969 5.902344 11.402344 5.761719 Z M 11.402344 5.761719" fill="#ddd"/></svg>

<svg xmlns="http://www.w3.org/2000/svg" width="16" height="16"><path d="M9.8 2.297c.13.148.2.34.2.535v10.336a.833.833 0 01-1.371.637L5.316 11H2.832a1.5 1.5 0 01-1.5-1.5v-3a1.5 1.5 0 011.5-1.5h2.484L8.63 2.195a.83.83 0 011.172.102zM9 3.19L5.684 6H2.832c-.273 0-.5.223-.5.5v3c0 .277.227.5.5.5h2.852L9 12.809zm2.402 2.57a.5.5 0 01.688.165c.383.629.574 1.328.574 2.094 0 .765-.191 1.468-.574 2.093a.498.498 0 01-.688.168.505.505 0 01-.168-.687c.286-.469.43-.989.43-1.574 0-.582-.144-1.106-.43-1.57a.504.504 0 01.168-.688zm0 0" fill="#ddd"/></svg>
